hosted_logos/energy_web_foundation.svg

<svg xmlns="http://www.w3.org/2000/svg" role="img" viewBox="-15.22 -15.22 791.44 279.94"><circle cx="124.9" cy="124.9" r="124.9" fill="#fff"/><path fill="#A566FF" d="M124.9 0C55.9342 0 0 55.9342 0 124.9c0 68.965 55.9342 124.9 124.9 124.9 68.965 0 124.9-55.935 124.9-124.9C250 55.9342 194.066 0 124.9 0zm-5.614 186.447c-6.816 4.812-15.036 7.619-23.2555 7.619-14.4347 0-27.6664-7.819-37.6905-22.254-9.0216-13.833-14.0337-29.871-14.4346-46.311 0-.601.4009-1.203 1.0024-1.403l9.8236-4.411c.8019-.401 1.6038 0 2.0048.802 0 .201.2004.401.2004.602 0 16.439 4.4106 31.876 12.2294 43.304 7.4178 10.826 17.0409 16.639 27.065 16.639 5.413 0 10.826-1.603 15.237-4.611.601-.401 1.603-.2 2.004.401 2.005 2.607 4.01 5.012 6.215 7.418.201.602.201 1.604-.401 2.205zm72.374-14.635c-9.824 14.235-23.256 22.254-37.69 22.254-14.435 0-27.667-8.019-37.691-22.254-9.423-13.632-14.635-31.676-14.635-50.721 0-17.643 10.224-31.4759 23.055-31.4759s23.056 13.8329 23.056 31.4759c.2 15.437-3.409 30.473-10.626 44.105-.401.802-1.403 1.003-2.005.602-.2 0-.2-.201-.401-.401-1.203-1.403-2.405-2.807-3.408-4.21-1.203-1.804-2.205-3.408-3.208-5.413-.2-.401-.2-1.003 0-1.404 4.612-10.625 6.817-22.052 6.817-33.48 0-8.621-4.411-18.444-10.225-18.444s-10.224 9.823-10.224 18.444c0 16.44 4.41 31.877 12.229 43.304 7.418 10.826 17.041 16.64 27.065 16.64 10.024 0 19.647-6.014 27.065-16.64 7.819-11.427 12.229-26.864 12.229-43.304 0-16.439-4.41-31.8764-12.229-43.3038-2.205-3.4082-5.012-6.4154-8.019-9.0216-.602-.6015-.602-1.6039-.201-2.2053.201-.2005.401-.401.602-.401l9.823-4.4106c.602-.2005 1.203-.2005 1.604.401 2.606 2.6062 4.812 5.413 6.817 8.2197 9.422 13.6327 14.635 31.6756 14.635 50.7216 0 19.046-5.012 37.29-14.435 50.922z"/><path d="M328.596 151h-20.952c-4.786 0-8.504-1.326-11.155-3.977-2.587-2.651-3.88-6.337-3.88-11.058v-19.4c0-4.785 1.293-8.471 3.88-11.058 2.651-2.651 6.369-3.977 11.155-3.977h7.954c4.785 0 8.503 1.326 11.155 3.977 2.651 2.587 3.977 6.273 3.977 11.058v12.319c0 1.164-.582 1.746-1.746 1.746h-25.996c-.712 0-1.067.323-1.067.97v4.171c0 4.721 2.36 7.081 7.081 7.081h19.594c1.164 0 1.746.582 1.746 1.746v4.85c0 1.035-.582 1.552-1.746 1.552zm-25.608-26.966h17.363c.646 0 .97-.323.97-.97v-6.208c0-2.457-.55-4.236-1.649-5.335-1.1-1.164-2.878-1.746-5.335-1.746h-5.335c-2.458 0-4.236.582-5.335 1.746-1.1 1.099-1.649 2.878-1.649 5.335v6.208c0 .647.323.97.97.97zM351.116 151h-6.111c-1.1 0-1.649-.55-1.649-1.649v-46.172c0-1.099.549-1.649 1.649-1.649h6.111c1.099 0 1.649.55 1.649 1.649v3.492h.388c1.552-3.427 4.817-5.141 9.797-5.141h4.268c4.72 0 8.342 1.293 10.864 3.88 2.522 2.587 3.783 6.305 3.783 11.155v32.786c0 1.099-.582 1.649-1.746 1.649h-6.111c-1.1 0-1.649-.55-1.649-1.649v-32.398c0-4.785-2.361-7.178-7.081-7.178h-4.559c-5.303 0-7.954 2.748-7.954 8.245v31.331c0 1.099-.55 1.649-1.649 1.649zm79.307 0h-20.952c-4.785 0-8.504-1.326-11.155-3.977-2.587-2.651-3.88-6.337-3.88-11.058v-19.4c0-4.785 1.293-8.471 3.88-11.058 2.651-2.651 6.37-3.977 11.155-3.977h7.954c4.785 0 8.504 1.326 11.155 3.977 2.651 2.587 3.977 6.273 3.977 11.058v12.319c0 1.164-.582 1.746-1.746 1.746h-25.996c-.711 0-1.067.323-1.067.97v4.171c0 4.721 2.36 7.081 7.081 7.081h19.594c1.164 0 1.746.582 1.746 1.746v4.85c0 1.035-.582 1.552-1.746 1.552zm-25.608-26.966h17.363c.647 0 .97-.323.97-.97v-6.208c0-2.457-.55-4.236-1.649-5.335-1.099-1.164-2.878-1.746-5.335-1.746h-5.335c-2.457 0-4.236.582-5.335 1.746-1.099 1.099-1.649 2.878-1.649 5.335v6.208c0 .647.323.97.97.97zM452.943 151h-6.111c-1.099 0-1.649-.55-1.649-1.649v-46.172c0-1.099.55-1.649 1.649-1.649h6.111c1.099 0 1.649.55 1.649 1.649v3.686h.388c.647-1.617 1.875-2.91 3.686-3.88 1.875-.97 3.945-1.455 6.208-1.455h3.589c1.099 0 1.649.55 1.649 1.649v5.044c0 1.229-.55 1.746-1.649 1.552h-5.82c-5.367 0-8.051 2.942-8.051 8.827v30.749c0 1.099-.55 1.649-1.649 1.649zm44.713-2.425h-4.365c-4.656 0-8.245-1.293-10.767-3.88-2.457-2.651-3.686-6.37-3.686-11.155v-16.975c0-4.785 1.326-8.471 3.977-11.058 2.651-2.651 6.337-3.977 11.058-3.977h21.728c1.164 0 1.746.55 1.746 1.649v48.015c0 4.721-1.358 8.374-4.074 10.961-2.651 2.651-6.337 3.977-11.058 3.977h-18.236c-1.099 0-1.649-.517-1.649-1.552v-5.044c0-1.099.55-1.649 1.649-1.649h16.781c4.721 0 7.081-2.393 7.081-7.178v-7.372h-.388c-1.617 3.492-4.882 5.238-9.797 5.238zm10.185-16.49v-21.34c0-.647-.356-.97-1.067-.97h-11.543c-4.591 0-6.887 2.393-6.887 7.178v16.102c0 4.785 2.296 7.178 6.887 7.178h4.656c5.303 0 7.954-2.716 7.954-8.148zm29.359 34.629h-5.141c-1.099 0-1.649-.55-1.649-1.649v-4.947c0-1.164.55-1.746 1.649-1.746h2.231c3.945 0 6.661-.776 8.148-2.328 1.552-1.552 2.846-4.106 3.88-7.663h-3.88c-.97 0-1.649-.55-2.037-1.649L527.5 103.179c-.258-1.099.162-1.649 1.261-1.649h6.499c1.035 0 1.682.55 1.94 1.649l10.573 38.024h.388l10.573-38.024c.194-1.099.841-1.649 1.94-1.649h6.208c1.229 0 1.746.582 1.552 1.746l-13.289 46.657c-1.487 5.432-3.589 9.571-6.305 12.416-2.716 2.91-6.596 4.365-11.64 4.365zM621.016 151h-8.342c-.97 0-1.617-.55-1.94-1.649l-11.155-46.172c-.259-1.099.129-1.649 1.164-1.649h6.984c1.164 0 1.811.55 1.94 1.649l7.081 36.666h.679l8.536-36.666c.194-1.099.808-1.649 1.843-1.649h6.402c1.099 0 1.778.55 2.037 1.649l8.342 36.666h.679l7.081-36.666c.194-1.099.841-1.649 1.94-1.649h6.984c1.099 0 1.487.55 1.164 1.649l-11.155 46.172c-.194 1.099-.841 1.649-1.94 1.649h-8.342c-1.035 0-1.681-.55-1.94-1.649l-7.76-35.987h-.679l-7.663 35.987c-.194 1.099-.841 1.649-1.94 1.649zm86.66 0h-20.952c-4.785 0-8.503-1.326-11.155-3.977-2.586-2.651-3.88-6.337-3.88-11.058v-19.4c0-4.785 1.294-8.471 3.88-11.058 2.652-2.651 6.37-3.977 11.155-3.977h7.954c4.786 0 8.504 1.326 11.155 3.977 2.652 2.587 3.977 6.273 3.977 11.058v12.319c0 1.164-.582 1.746-1.746 1.746h-25.996c-.711 0-1.067.323-1.067.97v4.171c0 4.721 2.361 7.081 7.081 7.081h19.594c1.164 0 1.746.582 1.746 1.746v4.85c0 1.035-.582 1.552-1.746 1.552zm-25.608-26.966h17.363c.647 0 .97-.323.97-.97v-6.208c0-2.457-.549-4.236-1.649-5.335-1.099-1.164-2.877-1.746-5.335-1.746h-5.335c-2.457 0-4.235.582-5.335 1.746-1.099 1.099-1.649 2.878-1.649 5.335v6.208c0 .647.324.97.97.97zm50.844 18.721h12.028c4.656 0 6.984-2.393 6.984-7.178v-19.012c0-4.785-2.328-7.178-6.984-7.178h-5.141c-5.302 0-7.954 2.716-7.954 8.148v24.153c0 .711.356 1.067 1.067 1.067zm-10.476 6.596V84.4576c0-1.0993.55-1.649 1.649-1.649h6.111c1.1 0 1.649.5497 1.649 1.649V106.38h.388c1.617-3.492 4.883-5.238 9.797-5.238h4.268c4.786 0 8.504 1.326 11.155 3.977 2.652 2.587 3.977 6.24 3.977 10.961v19.885c0 4.721-1.325 8.407-3.977 11.058-2.651 2.651-6.369 3.977-11.155 3.977h-22.213c-1.099 0-1.649-.55-1.649-1.649z"/></svg>

<svg width="767" height="250" viewBox="0 0 767 250" fill="none" xmlns="http://www.w3.org/2000/svg">
<path d="M124.9 0C55.9342 0 0 55.9342 0 124.9C0 193.865 55.9342 249.8 124.9 249.8C193.865 249.8 249.8 193.865 249.8 124.9C250 55.9342 194.066 0 124.9 0ZM119.286 186.447C112.47 191.259 104.25 194.066 96.0305 194.066C81.5958 194.066 68.3641 186.247 58.34 171.812C49.3184 157.979 44.3063 141.941 43.9054 125.501C43.9054 124.9 44.3063 124.298 44.9078 124.098L54.7314 119.687C55.5333 119.286 56.3352 119.687 56.7362 120.489C56.7362 120.69 56.9366 120.89 56.9366 121.091C56.9366 137.53 61.3472 152.967 69.166 164.395C76.5838 175.221 86.2069 181.034 96.231 181.034C101.644 181.034 107.057 179.431 111.468 176.423C112.069 176.022 113.071 176.223 113.472 176.824C115.477 179.431 117.482 181.836 119.687 184.242C119.888 184.844 119.888 185.846 119.286 186.447ZM191.66 171.812C181.836 186.047 168.404 194.066 153.97 194.066C139.535 194.066 126.303 186.047 116.279 171.812C106.856 158.18 101.644 140.136 101.644 121.091C101.644 103.448 111.868 89.6151 124.699 89.6151C137.53 89.6151 147.755 103.448 147.755 121.091C147.955 136.528 144.346 151.564 137.129 165.196C136.728 165.998 135.726 166.199 135.124 165.798C134.924 165.798 134.924 165.597 134.723 165.397C133.52 163.994 132.318 162.59 131.315 161.187C130.112 159.383 129.11 157.779 128.107 155.774C127.907 155.373 127.907 154.771 128.107 154.37C132.719 143.745 134.924 132.318 134.924 120.89C134.924 112.269 130.513 102.446 124.699 102.446C118.885 102.446 114.475 112.269 114.475 120.89C114.475 137.33 118.885 152.767 126.704 164.194C134.122 175.02 143.745 180.834 153.769 180.834C163.793 180.834 173.416 174.82 180.834 164.194C188.653 152.767 193.063 137.33 193.063 120.89C193.063 104.451 188.653 89.0136 180.834 77.5862C178.629 74.178 175.822 71.1708 172.815 68.5646C172.213 67.9631 172.213 66.9607 172.614 66.3593C172.815 66.1588 173.015 65.9583 173.216 65.9583L183.039 61.5477C183.641 61.3472 184.242 61.3472 184.643 61.9487C187.249 64.5549 189.455 67.3617 191.46 70.1684C200.882 83.8011 206.095 101.844 206.095 120.89C206.095 139.936 201.083 158.18 191.66 171.812Z" fill="#A566FF"/>
<path d="M328.597 151H307.645C302.859 151 299.141 149.674 296.49 147.023C293.903 144.372 292.61 140.686 292.61 135.965V116.565C292.61 111.78 293.903 108.094 296.49 105.507C299.141 102.856 302.859 101.53 307.645 101.53H315.599C320.384 101.53 324.102 102.856 326.754 105.507C329.405 108.094 330.731 111.78 330.731 116.565V128.884C330.731 130.048 330.149 130.63 328.985 130.63H302.989C302.277 130.63 301.922 130.953 301.922 131.6V135.771C301.922 140.492 304.282 142.852 309.003 142.852H328.597C329.761 142.852 330.343 143.434 330.343 144.598V149.448C330.343 150.483 329.761 151 328.597 151ZM302.989 124.034H320.352C320.998 124.034 321.322 123.711 321.322 123.064V116.856C321.322 114.399 320.772 112.62 319.673 111.521C318.573 110.357 316.795 109.775 314.338 109.775H309.003C306.545 109.775 304.767 110.357 303.668 111.521C302.568 112.62 302.019 114.399 302.019 116.856V123.064C302.019 123.711 302.342 124.034 302.989 124.034ZM351.117 151H345.006C343.906 151 343.357 150.45 343.357 149.351V103.179C343.357 102.08 343.906 101.53 345.006 101.53H351.117C352.216 101.53 352.766 102.08 352.766 103.179V106.671H353.154C354.706 103.244 357.971 101.53 362.951 101.53H367.219C371.939 101.53 375.561 102.823 378.083 105.41C380.605 107.997 381.866 111.715 381.866 116.565V149.351C381.866 150.45 381.284 151 380.12 151H374.009C372.909 151 372.36 150.45 372.36 149.351V116.953C372.36 112.168 369.999 109.775 365.279 109.775H360.72C355.417 109.775 352.766 112.523 352.766 118.02V149.351C352.766 150.45 352.216 151 351.117 151ZM430.424 151H409.472C404.687 151 400.968 149.674 398.317 147.023C395.73 144.372 394.437 140.686 394.437 135.965V116.565C394.437 111.78 395.73 108.094 398.317 105.507C400.968 102.856 404.687 101.53 409.472 101.53H417.426C422.211 101.53 425.93 102.856 428.581 105.507C431.232 108.094 432.558 111.78 432.558 116.565V128.884C432.558 130.048 431.976 130.63 430.812 130.63H404.816C404.105 130.63 403.749 130.953 403.749 131.6V135.771C403.749 140.492 406.109 142.852 410.83 142.852H430.424C431.588 142.852 432.17 143.434 432.17 144.598V149.448C432.17 150.483 431.588 151 430.424 151ZM404.816 124.034H422.179C422.826 124.034 423.149 123.711 423.149 123.064V116.856C423.149 114.399 422.599 112.62 421.5 111.521C420.401 110.357 418.622 109.775 416.165 109.775H410.83C408.373 109.775 406.594 110.357 405.495 111.521C404.396 112.62 403.846 114.399 403.846 116.856V123.064C403.846 123.711 404.169 124.034 404.816 124.034ZM452.944 151H446.833C445.734 151 445.184 150.45 445.184 149.351V103.179C445.184 102.08 445.734 101.53 446.833 101.53H452.944C454.043 101.53 454.593 102.08 454.593 103.179V106.865H454.981C455.628 105.248 456.856 103.955 458.667 102.985C460.542 102.015 462.612 101.53 464.875 101.53H468.464C469.563 101.53 470.113 102.08 470.113 103.179V108.223C470.113 109.452 469.563 109.969 468.464 109.775H462.644C457.277 109.775 454.593 112.717 454.593 118.602V149.351C454.593 150.45 454.043 151 452.944 151ZM497.657 148.575H493.292C488.636 148.575 485.047 147.282 482.525 144.695C480.068 142.044 478.839 138.325 478.839 133.54V116.565C478.839 111.78 480.165 108.094 482.816 105.507C485.467 102.856 489.153 101.53 493.874 101.53H515.602C516.766 101.53 517.348 102.08 517.348 103.179V151.194C517.348 155.915 515.99 159.568 513.274 162.155C510.623 164.806 506.937 166.132 502.216 166.132H483.98C482.881 166.132 482.331 165.615 482.331 164.58V159.536C482.331 158.437 482.881 157.887 483.98 157.887H500.761C505.482 157.887 507.842 155.494 507.842 150.709V143.337H507.454C505.837 146.829 502.572 148.575 497.657 148.575ZM507.842 132.085V110.745C507.842 110.098 507.486 109.775 506.775 109.775H495.232C490.641 109.775 488.345 112.168 488.345 116.953V133.055C488.345 137.84 490.641 140.233 495.232 140.233H499.888C505.191 140.233 507.842 137.517 507.842 132.085ZM537.201 166.714H532.06C530.961 166.714 530.411 166.164 530.411 165.065V160.118C530.411 158.954 530.961 158.372 532.06 158.372H534.291C538.236 158.372 540.952 157.596 542.439 156.044C543.991 154.492 545.285 151.938 546.319 148.381H542.439C541.469 148.381 540.79 147.831 540.402 146.732L527.501 103.179C527.243 102.08 527.663 101.53 528.762 101.53H535.261C536.296 101.53 536.943 102.08 537.201 103.179L547.774 141.203H548.162L558.735 103.179C558.929 102.08 559.576 101.53 560.675 101.53H566.883C568.112 101.53 568.629 102.112 568.435 103.276L555.146 149.933C553.659 155.365 551.557 159.504 548.841 162.349C546.125 165.259 542.245 166.714 537.201 166.714ZM621.017 151H612.675C611.705 151 611.058 150.45 610.735 149.351L599.58 103.179C599.321 102.08 599.709 101.53 600.744 101.53H607.728C608.892 101.53 609.539 102.08 609.668 103.179L616.749 139.845H617.428L625.964 103.179C626.158 102.08 626.772 101.53 627.807 101.53H634.209C635.308 101.53 635.987 102.08 636.246 103.179L644.588 139.845H645.267L652.348 103.179C652.542 102.08 653.189 101.53 654.288 101.53H661.272C662.371 101.53 662.759 102.08 662.436 103.179L651.281 149.351C651.087 150.45 650.44 151 649.341 151H640.999C639.964 151 639.318 150.45 639.059 149.351L631.299 113.364H630.62L622.957 149.351C622.763 150.45 622.116 151 621.017 151ZM707.677 151H686.725C681.94 151 678.222 149.674 675.57 147.023C672.984 144.372 671.69 140.686 671.69 135.965V116.565C671.69 111.78 672.984 108.094 675.57 105.507C678.222 102.856 681.94 101.53 686.725 101.53H694.679C699.465 101.53 703.183 102.856 705.834 105.507C708.486 108.094 709.811 111.78 709.811 116.565V128.884C709.811 130.048 709.229 130.63 708.065 130.63H682.069C681.358 130.63 681.002 130.953 681.002 131.6V135.771C681.002 140.492 683.363 142.852 688.083 142.852H707.677C708.841 142.852 709.423 143.434 709.423 144.598V149.448C709.423 150.483 708.841 151 707.677 151ZM682.069 124.034H699.432C700.079 124.034 700.402 123.711 700.402 123.064V116.856C700.402 114.399 699.853 112.62 698.753 111.521C697.654 110.357 695.876 109.775 693.418 109.775H688.083C685.626 109.775 683.848 110.357 682.748 111.521C681.649 112.62 681.099 114.399 681.099 116.856V123.064C681.099 123.711 681.423 124.034 682.069 124.034ZM732.913 142.755H744.941C749.597 142.755 751.925 140.362 751.925 135.577V116.565C751.925 111.78 749.597 109.387 744.941 109.387H739.8C734.498 109.387 731.846 112.103 731.846 117.535V141.688C731.846 142.399 732.202 142.755 732.913 142.755ZM722.437 149.351V84.458C722.437 83.3587 722.987 82.809 724.086 82.809H730.197C731.297 82.809 731.846 83.3587 731.846 84.458V106.38H732.234C733.851 102.888 737.117 101.142 742.031 101.142H746.299C751.085 101.142 754.803 102.468 757.454 105.119C760.106 107.706 761.431 111.359 761.431 116.08V135.965C761.431 140.686 760.106 144.372 757.454 147.023C754.803 149.674 751.085 151 746.299 151H724.086C722.987 151 722.437 150.45 722.437 149.351Z" fill="black"/>
</svg>
